X:1880
T:Fynbo - Nummer Fire
M:2/4
O:Denmark
R:Schottische
Z:Richard Robinson 
%%TUNEURL: http://www.leeds.ac.uk/music/Info/RRTuneBk/gettune/00000983.html
%%ID:00000983
K:G
Bc|\
d2b2 g3e|d2d2 B3d|c2c2 A3c|BABc d2Bc|\
d2b2 g3e|d2d2 B3d|cBAB cdef|"Fine"g2g2 g2::
K:D
z2|\
A2c2 e3g|f2d2 d3f|e2A2 A2Bc|d2f2 a4|\
A2c2 e3g|f2d2 d3f|e2A2 A2Bc|d2d2 d2:|
K:G
GA|\
B2d2 B3c|B2B2 G3B|A2A2 F3A|GFGA B2GA|\
B2d2 B3c|B2B2 G3B|AGFG ABcA|G2G2 G2::
K:D
z2|\
E2A2 c3e|d2F2 F3d|c2E2 E2DE|F2A2 [c4f4D4]|\
E2A2 c3e|d2F2 F3d|c2E2 E2DE|F2F2 F2:|
